img/hero/links/behance.svg

<svg width="20" height="14" viewBox="0 0 20 14" fill="none" xmlns="http://www.w3.org/2000/svg">
<path fill-rule="evenodd" clip-rule="evenodd" d="M5.78912 0.00115437C6.32953 -0.00887911 6.86916 0.0465246 7.39625 0.166157C7.84004 0.263048 8.26139 0.443346 8.63789 0.697466C8.98562 0.95016 9.26076 1.28988 9.43568 1.68253C9.63672 2.16536 9.7337 2.68515 9.72031 3.20798C9.74314 3.78207 9.59653 4.35018 9.29873 4.84151C8.98545 5.30556 8.5524 5.67617 8.04554 5.91403C8.73339 6.09947 9.33251 6.52424 9.73516 7.11195C10.1217 7.73467 10.316 8.45756 10.2937 9.19016C10.3064 9.77426 10.1857 10.3536 9.94059 10.8839C9.71405 11.3466 9.38234 11.7498 8.97203 12.0612C8.54958 12.3692 8.0742 12.5971 7.5695 12.7336C7.04611 12.8784 6.50542 12.9511 5.96238 12.9497H0V0.00115437H5.78912ZM5.44509 5.23834C5.86969 5.25584 6.28766 5.12874 6.63064 4.87781C6.9637 4.5813 7.13687 4.14471 7.09759 3.70052C7.10859 3.44467 7.05764 3.18995 6.94909 2.958C6.85701 2.77333 6.71383 2.61899 6.53658 2.51332C6.35706 2.39701 6.15536 2.31919 5.94422 2.28479C5.71515 2.24042 5.48204 2.22023 5.24874 2.22457H2.7011V5.24989H5.44509V5.23834ZM6.35673 10.6686C6.10663 10.7269 5.85037 10.7546 5.59359 10.7511H2.7011V7.18537H5.65052C6.1562 7.15698 6.65597 7.30577 7.06377 7.60613C7.45369 7.97396 7.65139 8.50156 7.5992 9.03506C7.61331 9.32393 7.55874 9.61204 7.43997 9.87574C7.33754 10.0826 7.1846 10.2602 6.99529 10.3922C6.80205 10.5243 6.58529 10.6181 6.35673 10.6686ZM15.7248 11.2675C15.1418 11.3043 14.5692 11.1003 14.1407 10.7032C13.7209 10.1929 13.5154 9.53958 13.5674 8.88078H19.9835C20.0317 8.17957 19.9741 7.47509 19.8127 6.79102C19.6655 6.15397 19.3987 5.55066 19.0265 5.01311C18.6626 4.50083 18.1873 4.07772 17.6363 3.77559C17.0268 3.45385 16.3454 3.29258 15.6563 3.30698C13.7415 3.28315 12.0294 4.49582 11.4165 6.31004C11.1942 6.93863 11.0825 7.60104 11.0865 8.26779C11.0771 8.94592 11.1851 9.62057 11.4058 10.2619C11.6024 10.8356 11.9081 11.3659 12.3059 11.8236C12.7053 12.2604 13.1952 12.6048 13.7414 12.8326C14.3453 13.0791 14.9926 13.2017 15.6447 13.1931C16.5585 13.2221 17.4587 12.9661 18.2204 12.4605C19.0145 11.8658 19.5749 11.0116 19.8045 10.0465H17.6503C17.5307 10.3855 17.3025 10.6756 17.0011 10.8715C16.6306 11.1399 16.1821 11.2791 15.7248 11.2675ZM15.5771 5.26227C16.0897 5.22703 16.5924 5.41538 16.9557 5.77873L16.9573 5.77955C17.2914 6.20711 17.4887 6.72555 17.5233 7.26705H13.5492C13.5637 7.05933 13.6019 6.85395 13.6631 6.65489C13.7309 6.41622 13.8428 6.19235 13.9931 5.99488C14.1626 5.78426 14.3717 5.60881 14.6085 5.47842C14.9073 5.32392 15.241 5.24945 15.5771 5.26227ZM18.0167 0.865769H13.0369V2.13877H18.0167V0.865769Z" fill="white"/>
</svg>

<svg width="20" height="14" fill="none" xmlns="http://www.w3.org/2000/svg"><path fill-rule="evenodd" clip-rule="evenodd" d="M5.79.001a6.7 6.7 0 0 1 1.606.165c.444.097.865.277 1.242.531.348.253.623.593.798.986a3.72 3.72 0 0 1 .284 1.525A2.927 2.927 0 0 1 9.3 4.842a3.102 3.102 0 0 1-1.253 1.072c.687.185 1.287.61 1.69 1.198.386.623.58 1.346.558 2.078a3.838 3.838 0 0 1-.353 1.694 3.3 3.3 0 0 1-.969 1.177 4.275 4.275 0 0 1-1.402.673 5.97 5.97 0 0 1-1.608.216H0V0h5.79Zm-.345 5.237c.425.018.843-.11 1.186-.36A1.41 1.41 0 0 0 7.098 3.7a1.59 1.59 0 0 0-.149-.743 1.077 1.077 0 0 0-.412-.445 1.547 1.547 0 0 0-.593-.228 3.331 3.331 0 0 0-.695-.06H2.7V5.25h2.744v-.012Zm.912 5.43c-.25.059-.507.087-.763.083H2.7V7.185h2.95a2.177 2.177 0 0 1 1.413.421c.39.368.587.896.535 1.43a1.83 1.83 0 0 1-.159.84 1.372 1.372 0 0 1-.445.516c-.193.132-.41.226-.638.277Zm9.368.6a2.133 2.133 0 0 1-1.584-.565 2.552 2.552 0 0 1-.574-1.822h6.416a7.008 7.008 0 0 0-.17-2.09 5.166 5.166 0 0 0-.787-1.778 4.157 4.157 0 0 0-1.39-1.237 4.06 4.06 0 0 0-1.98-.469 4.417 4.417 0 0 0-4.24 3.003 5.768 5.768 0 0 0-.33 1.958c-.009.678.1 1.353.32 1.994.196.574.502 1.104.9 1.562.4.436.89.78 1.435 1.009.604.246 1.252.369 1.904.36a4.405 4.405 0 0 0 2.575-.732 4.242 4.242 0 0 0 1.585-2.415H17.65c-.12.34-.348.63-.649.825-.37.269-.819.408-1.276.396Zm-.148-6.006a1.777 1.777 0 0 1 1.379.517h.001c.334.428.532.947.566 1.488H13.55a2.73 2.73 0 0 1 .114-.612c.068-.239.18-.463.33-.66.17-.21.379-.386.615-.517.3-.154.633-.229.97-.216Zm2.44-4.396h-4.98v1.273h4.98V.866Z" fill="#fff"/></svg>
